X:9
T:Hey downe a downe
C:Thomas Ravenscroft
B:Pammelia
S:http://www.pbm.com/~lindahl/ravenscroft/pammelia/pam_09small.html
M:4/4
L:1/4
K:C
  G3   F/  E/|"^X"D3    E |"^X"F2   D2| C4 | 
w:Hey down a     down, be-    hold and see,
   C2   C    C| G4 | F > E   F    G |A3    A  |
w:what song is this, or how may this be, three 
   c3 c |G3 G |_B3 A/ G/|F3 G |
w:parts in one: Sing all af-ter me with
   A A A G/ F/ | E C C2 | G3 F/ E/| D3 E| F2 E D|C2 C2 ||
w:hey down down a down down a down Hey troll the ber-ry drink and be mer-ry.
W:
W:Canon in three parts in one, in the fifth and ninth

